X:1
T:Hark! The Springtide Breezes
T:Joseph W. Lerman
T:Hark! The Springtide Breezes
T:Public Domain
T:Public Domain
C:Joseph W. Lerman
Z:Public Domain
%%score 1 2
L:1/8
M:2/4
K:C
V:1 treble 
V:2 bass 
V:1
 x4 |: [CEG][CEA] [CEG][CEA] | [CEG][CEA] [CEc][CEA] | [B,FB]2 [B,FB]2 | [B,FB]3 z | %5
w: |1.~Hark! the spring- tide|breez- es pass the|news a-|long,|
w: |2.~Fin- ished is the|con- flict, all the|bat- tles|o’er,|
w: |3.~Gold- en gates are|lift- ed, doors stand|o- pen|wide,|
 [B,FG][B,FA] [B,FG][B,FA] | [B,FG][B,FB] [FBe][FBd] | [Ed]2 [Ec]2 | [EG]3 z | %9
w: Je- sus Christ has|ris- en, fill the|world with|song;|
w: Peace that pass- eth|know- ledge comes to|us once|more,|
w: Lo! the King is|stand- ing at His|Fa- ther’s|side,|
"^Girls" [Ge]>[Ge] [Gf][Ge] | [Fe][Fd] [FA]2 | [Fd]>[Fd] [Fe][Fd] | [Ed][Ec] [EG]2 | %13
w: Earth and all her|voic- es sing|glad ho- san- nas|to the King,|
w: Raise your notes of|tri- umph high,|Je- sus lives no|more to die,|
w: In the land of|end- less light|an- gels praise Him,|day and night,|
"^Boys" [EG]>[FA] [EG][CE] | [B,F][C^F] [CG]2"^All" | [FBe]3 [FBd] | [Fd][Ec] z2 || %17
w: Prais- es to our|Lord we bring,|Hal- le-|lu- jah!|
w: Earth and heav’n with|joy re- ply,|Hal- le-|lu- jah!|
w: Crown Him ev- er|Lord of might,|Hal- le-|lu- jah!|
"^Refrain" [Ge]>[Ge] [Af][Ge] | [FA][Fd] z2 | [Fd]>[Fd] [Ge][Fd] | [EG]3 z | [Ec]>[Ed] [Ec][EA] | %22
w: |||||
w: Glo- ry, hal- le-|lu- jah!|Praise the vic- tor|King,|Who to all His|
w: |||||
 [DFc][DFB] [B,FB][B,FA] | [B,FG]2 [FGd]2 | [EGe]3 z | [Ge]>[Ge] [Af][Ge] | [FA][Fd] z2 | %27
w: |||||
w: peo- ple life and|light doth|bring,|Glo- ry, hal- le-|lu- jah!|
w: |||||
 [Fd]>[Fd] [Ge][Fd] | [EG]3 z | [CE][CG] [B,F][B,A] | [B,G][Ec] [Fd][Af] | [Fe]2 [Ed]2 | [Ec]3 z :| %33
w: ||||||
w: Praise the vic- tor|King,|Who to all His|peo- ple life and|light doth|bring.|
w: ||||||
 [Ec]3 c/c/ | [_Ec][Ec] z c/c/ | [Ece][Ece] z2 |] %36
w: |||
w: bring. Hal- le-|lu- jah! Hal- le-|lu- jah!|
w: |||
V:2
 x4 |: [C,G,][C,G,] [G,,G,][G,,G,] | [C,G,][C,G,] [G,,G,][G,,G,] | %3
 ([D,G,][D,G,]) ([G,,G,][G,,G,]) | ([D,G,][D,G,] [G,,G,][G,,G,]) | [D,G,][D,G,] [G,,G,][G,,G,] | %6
 [D,G,][D,G,] [G,,G,][G,,G,] | ([C,G,][C,G,]) ([G,,G,][G,,G,]) | ([C,G,][C,G,] [G,,G,][G,,G,]) | %9
 [^C,A,]>[C,A,] [C,A,][C,A,] | [D,A,][D,A,] [D,A,]2 | [G,B,]>[G,B,] [G,B,][G,B,] | %12
 [C,G,C][C,G,C] [C,G,C]2 | [C,C]>[C,C] [C,C][C,G,] | [D,G,][^D,A,] [E,G,]2 | [G,,G,]3 [G,,G,] | %16
 [C,G,][C,G,] z2 || [C,C]>[C,C] [C,C][C,C] | [F,A,][F,A,] z2 | [G,B,]>[G,B,] [G,B,][G,B,] | %20
 [C,C]3 z | [C,G,]>[C,G,] [C,G,][C,G,] | [D,G,][D,F,] [G,,G,][G,,G,] | %23
 ([D,G,][D,G,]) ([G,,G,][G,,G,]) | ([C,C][G,,G,] [A,,A,][B,,B,]) | [C,C]>[C,C] [C,C][C,C] | %26
 [F,A,][F,A,] z2 | [G,B,]>[G,B,] [G,B,][G,B,] | [C,C]3 z | [C,G,][E,G,] [D,G,][F,G,] | %30
 [E,G,][C,G,] [F,,F,][D,,D,] | [G,,G,]2 [G,,G,]2 | [C,G,]3 z :| [C,G,]3 z | [_A,,_A,][A,,A,] z2 | %35
 [C,G,][C,G,] z2 |] %36

